Numix-Circle/48x48/apps/gnome-maps.svg

<?xml version="1.0" encoding="UTF-8" standalone="no"?>
<svg
   xmlns:dc="http://purl.org/dc/elements/1.1/"
   xmlns:cc="http://creativecommons.org/ns#"
   xmlns:rdf="http://www.w3.org/1999/02/22-rdf-syntax-ns#"
   xmlns:svg="http://www.w3.org/2000/svg"
   xmlns="http://www.w3.org/2000/svg"
   xmlns:sodipodi="http://sodipodi.sourceforge.net/DTD/sodipodi-0.dtd"
   xmlns:inkscape="http://www.inkscape.org/namespaces/inkscape"
   viewBox="0 0 48 48"
   id="svg2"
   version="1.1"
   inkscape:version="0.48.5 r10040"
   width="100%"
   height="100%"
   sodipodi:docname="gnome-maps.svg">
  <metadata
     id="metadata70">
    <rdf:RDF>
      <cc:Work
         rdf:about="">
        <dc:format>image/svg+xml</dc:format>
        <dc:type
           rdf:resource="http://purl.org/dc/dcmitype/StillImage" />
      </cc:Work>
    </rdf:RDF>
  </metadata>
  <sodipodi:namedview
     pagecolor="#ffffff"
     bordercolor="#666666"
     borderopacity="1"
     objecttolerance="10"
     gridtolerance="10"
     guidetolerance="10"
     inkscape:pageopacity="0"
     inkscape:pageshadow="2"
     inkscape:window-width="1366"
     inkscape:window-height="713"
     id="namedview68"
     showgrid="false"
     inkscape:zoom="9.8333333"
     inkscape:cx="21.723097"
     inkscape:cy="8.4267378"
     inkscape:window-x="0"
     inkscape:window-y="28"
     inkscape:window-maximized="1"
     inkscape:current-layer="svg2" />
  <defs
     id="defs4">
    <clipPath
       id="clipPath-324598080">
      <g
         transform="translate(0,-1004.3622)"
         id="g7">
        <path
           d="m -24 13 c 0 1.105 -0.672 2 -1.5 2 -0.828 0 -1.5 -0.895 -1.5 -2 0 -1.105 0.672 -2 1.5 -2 0.828 0 1.5 0.895 1.5 2 z"
           transform="matrix(15.333333,0,0,11.5,414.99999,878.8622)"
           fill="#1890d0"
           id="path9" />
      </g>
    </clipPath>
    <clipPath
       id="clipPath11">
      <g
         transform="translate(0,-1004.3622)"
         id="g13">
        <path
           d="m -24 13 c 0 1.105 -0.672 2 -1.5 2 -0.828 0 -1.5 -0.895 -1.5 -2 0 -1.105 0.672 -2 1.5 -2 0.828 0 1.5 0.895 1.5 2 z"
           transform="matrix(15.333333,0,0,11.5,414.99999,878.8622)"
           fill="#1890d0"
           id="path15" />
      </g>
    </clipPath>
    <linearGradient
       id="linearGradient3126"
       gradientUnits="userSpaceOnUse"
       gradientTransform="matrix(0,-1,1,0,-1.5e-6,47.999998)"
       x1="1"
       x2="47">
      <stop
         stop-color="#5ab133"
         stop-opacity="1"
         id="stop18" />
      <stop
         offset="1"
         stop-color="#63c038"
         stop-opacity="1"
         id="stop20" />
    </linearGradient>
    <clipPath
       id="clipPath-324598080-6">
      <g
         transform="translate(0,-1004.3622)"
         id="g7-2">
        <path
           style="fill:#1890d0"
           inkscape:connector-curvature="0"
           d="m -24,13 c 0,1.105 -0.672,2 -1.5,2 -0.828,0 -1.5,-0.895 -1.5,-2 0,-1.105 0.672,-2 1.5,-2 0.828,0 1.5,0.895 1.5,2 z"
           transform="matrix(15.333333,0,0,11.5,414.99999,878.8622)"
           id="path9-6" />
      </g>
    </clipPath>
  </defs>
  <g
     id="g22">
    <path
       d="m 36.31 5 c 5.859 4.062 9.688 10.831 9.688 18.5 c 0 12.426 -10.07 22.5 -22.5 22.5 c -7.669 0 -14.438 -3.828 -18.5 -9.688 c 1.037 1.822 2.306 3.499 3.781 4.969 c 4.085 3.712 9.514 5.969 15.469 5.969 c 12.703 0 23 -10.298 23 -23 c 0 -5.954 -2.256 -11.384 -5.969 -15.469 c -1.469 -1.475 -3.147 -2.744 -4.969 -3.781 z m 4.969 3.781 c 3.854 4.113 6.219 9.637 6.219 15.719 c 0 12.703 -10.297 23 -23 23 c -6.081 0 -11.606 -2.364 -15.719 -6.219 c 4.16 4.144 9.883 6.719 16.219 6.719 c 12.703 0 23 -10.298 23 -23 c 0 -6.335 -2.575 -12.06 -6.719 -16.219 z"
       opacity="0.05"
       id="path24" />
    <path
       d="m 41.28 8.781 c 3.712 4.085 5.969 9.514 5.969 15.469 c 0 12.703 -10.297 23 -23 23 c -5.954 0 -11.384 -2.256 -15.469 -5.969 c 4.113 3.854 9.637 6.219 15.719 6.219 c 12.703 0 23 -10.298 23 -23 c 0 -6.081 -2.364 -11.606 -6.219 -15.719 z"
       opacity="0.1"
       id="path26" />
    <path
       d="m 31.25 2.375 c 8.615 3.154 14.75 11.417 14.75 21.13 c 0 12.426 -10.07 22.5 -22.5 22.5 c -9.708 0 -17.971 -6.135 -21.12 -14.75 a 23 23 0 0 0 44.875 -7 a 23 23 0 0 0 -16 -21.875 z"
       opacity="0.2"
       id="path28" />
  </g>
  <path
     d="m 24 1 c -12.703 0 -23 10.297 -23 23 c 0 7.114 3.24 13.469 8.313 17.688 l 16.06 -12.563 l 11.625 13.844 c 6.04 -4.144 10 -11.09 10 -18.969 c 0 -12.703 -10.297 -23 -23 -23 z m 11.531 42.875 c -0.478 0.278 -0.938 0.537 -1.438 0.781 c 0.489 -0.239 0.969 -0.509 1.438 -0.781 z m -23.03 0.031 c 0.497 0.287 1.012 0.562 1.531 0.813 c -0.518 -0.251 -1.036 -0.525 -1.531 -0.813 z m 1.75 0.906 c 0.48 0.225 0.972 0.433 1.469 0.625 c -0.496 -0.193 -0.99 -0.399 -1.469 -0.625 z m 18.281 0.531 c -0.528 0.211 -1.079 0.421 -1.625 0.594 c 0.556 -0.175 1.088 -0.379 1.625 -0.594 z m -16.16 0.344 c 0.514 0.181 1.033 0.356 1.563 0.5 c -0.536 -0.146 -1.043 -0.317 -1.563 -0.5 z m 1.563 0.5 c 0.642 0.175 1.306 0.318 1.969 0.438 c -0.664 -0.12 -1.326 -0.262 -1.969 -0.438 z m 1.969 0.438 c 0.577 0.104 1.159 0.19 1.75 0.25 c -0.586 -0.06 -1.178 -0.147 -1.75 -0.25 z m 8.719 -0.094 c -0.747 0.154 -1.51 0.265 -2.281 0.344 c 0.773 -0.079 1.533 -0.191 2.281 -0.344 z m -6.438 0.375 c 0.6 0.047 1.201 0.094 1.813 0.094 c -0.614 0 -1.211 -0.046 -1.813 -0.094 z"
     id="path30"
     fill-opacity="1"
     fill="url(#linearGradient3126)" />
  <g
     id="g32">
    <g
       clip-path="url(#clipPath-324598080)"
       id="g34">
      <g
         transform="translate(1,1)"
         id="g36">
        <g
           id="g38"
           opacity="0.1">
          <!-- color: #63c038 -->
          <g
             id="g40">
            <path
               d="M 49 8 L 1 47 L 1 49 L 5 49 L 25.84375 31.9375 L 40 49 L 44 49 L 28.625 29.65625 L 49 13 L 49 8 z "
               id="path46"
               transform="translate(-1,-1)" />
          </g>
        </g>
      </g>
    </g>
  </g>
  <path
     d="m 25.375 29.13 l -16.06 12.563 c 3.985 3.315 9.1 5.313 14.688 5.313 c 4.821 0 9.303 -1.496 13 -4.03 l -11.625 -13.844 z"
     fill="#868bec"
     fill-rule="nonzero"
     stroke="none"
     fill-opacity="1"
     id="path54" />
  <path
     d="M 43 11.0625 L 7.4375 39.9375 C 8.3895 40.9265 9.41625 41.84925 10.53125 42.65625 L 24.84375 30.9375 L 35.5625 43.875 C 36.5115 43.322 37.393 42.71025 38.25 42.03125 L 27.625 28.65625 L 44.9375 14.5 C 44.3915 13.3 43.736 12.1425 43 11.0625 z "
     id="path56"
     style="fill:#ffe68e;fill-opacity:1" />
  <g
     id="g64">
    <path
       d="m 40.03 7.531 c 3.712 4.084 5.969 9.514 5.969 15.469 0 12.703 -10.297 23 -23 23 c -5.954 0 -11.384 -2.256 -15.469 -5.969 4.178 4.291 10.01 6.969 16.469 6.969 c 12.703 0 23 -10.298 23 -23 0 -6.462 -2.677 -12.291 -6.969 -16.469 z"
       opacity="0.1"
       id="path66" />
  </g>
  <g
     transform="translate(2.9138685e-5,0)"
     id="g32-5">
    <g
       clip-path="url(#clipPath-324598080-6)"
       id="g34-0">
      <g
         transform="translate(1,1)"
         id="g36-9">
        <g
           style="opacity:0.1"
           id="g38-3">
          <!-- color: #63c038 -->
          <g
             id="g40-2">
            <path
               style="fill:#000000;fill-opacity:1;fill-rule:evenodd;stroke:none"
               inkscape:connector-curvature="0"
               d="m 18.516,21.293 c 0,1.508 -1.223,2.73 -2.734,2.73 -1.512,0 -2.738,-1.223 -2.738,-2.73 0,-1.508 1.227,-2.73 2.738,-2.73 1.512,0 2.734,1.223 2.734,2.73 m 0,0"
               id="path52" />
            <path
               style="fill:#000000;fill-opacity:1;fill-rule:evenodd;stroke:none"
               inkscape:connector-curvature="0"
               d="m 15.863,34.949 c -0.449,-2.211 -1.246,-4.051 -2.211,-5.754 -0.715,-1.262 -1.543,-2.43 -2.309,-3.656 -0.254,-0.41 -0.477,-0.84 -0.719,-1.266 -0.492,-0.848 -0.891,-1.832 -0.867,-3.109 0.023,-1.25 0.387,-2.25 0.91,-3.07 0.855,-1.344 2.293,-2.449 4.223,-2.738 1.574,-0.238 3.055,0.164 4.102,0.777 0.855,0.496 1.52,1.164 2.023,1.953 0.527,0.82 0.891,1.789 0.922,3.055 0.016,0.648 -0.094,1.25 -0.242,1.746 -0.152,0.504 -0.395,0.926 -0.613,1.375 -0.422,0.879 -0.953,1.684 -1.488,2.488 -1.586,2.398 -3.078,4.848 -3.73,8.199 m 0,0"
               id="path50-4" />
          </g>
        </g>
      </g>
    </g>
  </g>
  <path
     style="fill:#f3533d;fill-opacity:1;fill-rule:evenodd;stroke:none"
     inkscape:connector-curvature="0"
     d="m 15.863029,34.949 c -0.449,-2.211 -1.246,-4.051 -2.211,-5.754 -0.715,-1.262 -1.543,-2.43 -2.309,-3.656 -0.254,-0.41 -0.477,-0.84 -0.719,-1.266001 -0.492,-0.847999 -0.8910001,-1.832 -0.8670001,-3.109 0.023,-1.25 0.3870001,-2.25 0.9100001,-3.069999 0.855,-1.344 2.293,-2.449001 4.223,-2.738 1.574,-0.238001 3.055,0.164001 4.102,0.777 0.855,0.495999 1.52,1.164 2.023,1.953 0.527,0.819999 0.891,1.789 0.922,3.054999 0.01602,0.648 -0.094,1.250001 -0.242001,1.746 -0.152001,0.504 -0.394999,0.926 -0.612999,1.375001 -0.422,0.878999 -0.953,1.684 -1.488,2.488 -1.586,2.398 -3.078,4.848 -3.73,8.199 m 0,0"
     id="path60-4" />
  <path
     style="fill:#c12f20;fill-opacity:1;fill-rule:evenodd;stroke:none"
     inkscape:connector-curvature="0"
     d="m 18.516029,21.293 c 0,1.507999 -1.223,2.73 -2.734,2.73 -1.512,0 -2.738,-1.223 -2.738,-2.73 0,-1.508 1.227,-2.73 2.738,-2.73 1.512,0 2.734,1.223 2.734,2.73 m 0,0"
     id="path62-0" />
</svg>

<svg xmlns="http://www.w3.org/2000/svg" viewBox="0 0 48 48"><defs><clipPath id="clipPath-324598080"><g transform="translate(0,-1004.3622)"><path d="m -24 13 c 0 1.105 -0.672 2 -1.5 2 -0.828 0 -1.5 -0.895 -1.5 -2 0 -1.105 0.672 -2 1.5 -2 0.828 0 1.5 0.895 1.5 2 z" transform="matrix(15.333333,0,0,11.5,414.99999,878.8622)" fill="#1890d0"/></g></clipPath><clipPath><g transform="translate(0,-1004.3622)"><path d="m -24 13 c 0 1.105 -0.672 2 -1.5 2 -0.828 0 -1.5 -0.895 -1.5 -2 0 -1.105 0.672 -2 1.5 -2 0.828 0 1.5 0.895 1.5 2 z" transform="matrix(15.333333,0,0,11.5,414.99999,878.8622)" fill="#1890d0"/></g></clipPath><linearGradient id="linearGradient3126" gradientUnits="userSpaceOnUse" gradientTransform="matrix(0,-1,1,0,-1.5e-6,47.999998)" x1="1" x2="47"><stop stop-color="#5ab133" stop-opacity="1"/><stop offset="1" stop-color="#63c038" stop-opacity="1"/></linearGradient><clipPath id="clipPath-324598080-6"><g transform="translate(0,-1004.3622)"><path d="m -24 13 c 0 1.105 -0.672 2 -1.5 2 -0.828 0 -1.5 -0.895 -1.5 -2 0 -1.105 0.672 -2 1.5 -2 0.828 0 1.5 0.895 1.5 2 z" transform="matrix(15.333333,0,0,11.5,414.99999,878.8622)" fill="#1890d0"/></g></clipPath></defs><g><path d="m 36.31 5 c 5.859 4.062 9.688 10.831 9.688 18.5 c 0 12.426 -10.07 22.5 -22.5 22.5 c -7.669 0 -14.438 -3.828 -18.5 -9.688 c 1.037 1.822 2.306 3.499 3.781 4.969 c 4.085 3.712 9.514 5.969 15.469 5.969 c 12.703 0 23 -10.298 23 -23 c 0 -5.954 -2.256 -11.384 -5.969 -15.469 c -1.469 -1.475 -3.147 -2.744 -4.969 -3.781 z m 4.969 3.781 c 3.854 4.113 6.219 9.637 6.219 15.719 c 0 12.703 -10.297 23 -23 23 c -6.081 0 -11.606 -2.364 -15.719 -6.219 c 4.16 4.144 9.883 6.719 16.219 6.719 c 12.703 0 23 -10.298 23 -23 c 0 -6.335 -2.575 -12.06 -6.719 -16.219 z" opacity="0.05"/><path d="m 41.28 8.781 c 3.712 4.085 5.969 9.514 5.969 15.469 c 0 12.703 -10.297 23 -23 23 c -5.954 0 -11.384 -2.256 -15.469 -5.969 c 4.113 3.854 9.637 6.219 15.719 6.219 c 12.703 0 23 -10.298 23 -23 c 0 -6.081 -2.364 -11.606 -6.219 -15.719 z" opacity="0.1"/><path d="m 31.25 2.375 c 8.615 3.154 14.75 11.417 14.75 21.13 c 0 12.426 -10.07 22.5 -22.5 22.5 c -9.708 0 -17.971 -6.135 -21.12 -14.75 a 23 23 0 0 0 44.875 -7 a 23 23 0 0 0 -16 -21.875 z" opacity="0.2"/></g><path d="m 24 1 c -12.703 0 -23 10.297 -23 23 c 0 7.114 3.24 13.469 8.313 17.688 l 16.06 -12.563 l 11.625 13.844 c 6.04 -4.144 10 -11.09 10 -18.969 c 0 -12.703 -10.297 -23 -23 -23 z m 11.531 42.875 c -0.478 0.278 -0.938 0.537 -1.438 0.781 c 0.489 -0.239 0.969 -0.509 1.438 -0.781 z m -23.03 0.031 c 0.497 0.287 1.012 0.562 1.531 0.813 c -0.518 -0.251 -1.036 -0.525 -1.531 -0.813 z m 1.75 0.906 c 0.48 0.225 0.972 0.433 1.469 0.625 c -0.496 -0.193 -0.99 -0.399 -1.469 -0.625 z m 18.281 0.531 c -0.528 0.211 -1.079 0.421 -1.625 0.594 c 0.556 -0.175 1.088 -0.379 1.625 -0.594 z m -16.16 0.344 c 0.514 0.181 1.033 0.356 1.563 0.5 c -0.536 -0.146 -1.043 -0.317 -1.563 -0.5 z m 1.563 0.5 c 0.642 0.175 1.306 0.318 1.969 0.438 c -0.664 -0.12 -1.326 -0.262 -1.969 -0.438 z m 1.969 0.438 c 0.577 0.104 1.159 0.19 1.75 0.25 c -0.586 -0.06 -1.178 -0.147 -1.75 -0.25 z m 8.719 -0.094 c -0.747 0.154 -1.51 0.265 -2.281 0.344 c 0.773 -0.079 1.533 -0.191 2.281 -0.344 z m -6.438 0.375 c 0.6 0.047 1.201 0.094 1.813 0.094 c -0.614 0 -1.211 -0.046 -1.813 -0.094 z" fill-opacity="1" fill="url(#linearGradient3126)"/><g><g clip-path="url(#clipPath-324598080)"><g transform="translate(1,1)"><g opacity="0.1"><!-- color: #63c038 --><g><path d="M 49 8 L 1 47 L 1 49 L 5 49 L 25.84375 31.9375 L 40 49 L 44 49 L 28.625 29.65625 L 49 13 L 49 8 z " transform="translate(-1,-1)"/></g></g></g></g></g><path d="m 25.375 29.13 l -16.06 12.563 c 3.985 3.315 9.1 5.313 14.688 5.313 c 4.821 0 9.303 -1.496 13 -4.03 l -11.625 -13.844 z" fill="#868bec" fill-rule="nonzero" stroke="none" fill-opacity="1"/><path d="m 43 11.06 l -35.563 28.875 c 0.952 0.989 1.979 1.912 3.094 2.719 l 14.313 -11.719 l 10.719 12.938 c 0.949 -0.553 1.831 -1.165 2.688 -1.844 l -10.625 -13.375 l 17.313 -14.156 c -0.546 -1.2 -1.202 -2.357 -1.938 -3.438 z" fill="#ffe68e" fill-opacity="1"/><g><path d="m 40.03 7.531 c 3.712 4.084 5.969 9.514 5.969 15.469 0 12.703 -10.297 23 -23 23 c -5.954 0 -11.384 -2.256 -15.469 -5.969 4.178 4.291 10.01 6.969 16.469 6.969 c 12.703 0 23 -10.298 23 -23 0 -6.462 -2.677 -12.291 -6.969 -16.469 z" opacity="0.1"/></g><g transform="translate(2.9138685e-5,0)"><g clip-path="url(#clipPath-324598080-6)"><g transform="translate(1,1)"><g opacity="0.1"><!-- color: #63c038 --><g><path d="m 18.516 21.293 c 0 1.508 -1.223 2.73 -2.734 2.73 -1.512 0 -2.738 -1.223 -2.738 -2.73 0 -1.508 1.227 -2.73 2.738 -2.73 1.512 0 2.734 1.223 2.734 2.73 m 0 0" fill="#000" fill-rule="evenodd" stroke="none" fill-opacity="1"/><path d="m 15.863 34.949 c -0.449 -2.211 -1.246 -4.051 -2.211 -5.754 -0.715 -1.262 -1.543 -2.43 -2.309 -3.656 -0.254 -0.41 -0.477 -0.84 -0.719 -1.266 -0.492 -0.848 -0.891 -1.832 -0.867 -3.109 0.023 -1.25 0.387 -2.25 0.91 -3.07 0.855 -1.344 2.293 -2.449 4.223 -2.738 1.574 -0.238 3.055 0.164 4.102 0.777 0.855 0.496 1.52 1.164 2.023 1.953 0.527 0.82 0.891 1.789 0.922 3.055 0.016 0.648 -0.094 1.25 -0.242 1.746 -0.152 0.504 -0.395 0.926 -0.613 1.375 -0.422 0.879 -0.953 1.684 -1.488 2.488 -1.586 2.398 -3.078 4.848 -3.73 8.199 m 0 0" fill="#000" fill-rule="evenodd" stroke="none" fill-opacity="1"/></g></g></g></g></g><path d="m 15.863 34.949 c -0.449 -2.211 -1.246 -4.051 -2.211 -5.754 -0.715 -1.262 -1.543 -2.43 -2.309 -3.656 -0.254 -0.41 -0.477 -0.84 -0.719 -1.266 -0.492 -0.848 -0.891 -1.832 -0.867 -3.109 0.023 -1.25 0.387 -2.25 0.91 -3.07 0.855 -1.344 2.293 -2.449 4.223 -2.738 1.574 -0.238 3.055 0.164 4.102 0.777 0.855 0.496 1.52 1.164 2.023 1.953 0.527 0.82 0.891 1.789 0.922 3.055 0.016 0.648 -0.094 1.25 -0.242 1.746 -0.152 0.504 -0.395 0.926 -0.613 1.375 -0.422 0.879 -0.953 1.684 -1.488 2.488 -1.586 2.398 -3.078 4.848 -3.73 8.199 m 0 0" fill="#f3533d" fill-rule="evenodd" stroke="none" fill-opacity="1"/><path d="m 18.516 21.293 c 0 1.508 -1.223 2.73 -2.734 2.73 -1.512 0 -2.738 -1.223 -2.738 -2.73 0 -1.508 1.227 -2.73 2.738 -2.73 1.512 0 2.734 1.223 2.734 2.73 m 0 0" fill="#c12f20" fill-rule="evenodd" stroke="none" fill-opacity="1"/></svg>
